X: 5
T:AVANT DEUX de MAROUE
M:4/4
L:1/4
Q:1/4=60
K:C
|cd/2e/2dc BAG2|GcBc dc/2d/2ec|cd/2e/2dc BAG2|GcBc dBc2|
cd/2e/2dd dc/2d/2ed|cd/2e/2dc BdcG|cde2 d2c2|
